X:67
T:Cuckolds all a row
R:Jig
M:6/8
L:1/8
Q:110
K:G
a2a a2g|f2g a2d|e2e f>ef|1 g3-g3 :|2 g3-g2B||
cdc BAB|A2A fef|g2d ed2|B3 G>AB|c>dc B>AB|A2A f>ef|g2d ed2|B3 G3||
W:Come bachelors and married men, and listen to my song
W:And I will shew you plainly then, the injury and wrong
W:That constantly I do sustain through my unhappy life
W:The which does put me to great pain, by my unquiet wife

